X: 77
T: Hej vil du med s\aa kom
M: 3/4
L: 1/16
Z: 2006 John Chambers <jc@trillian.mit.edu>
K: D
[| A2AA d2d2 d4 | A2Ac e2e2 e4 | f2ef g2g2 f2a2 | ggee d2AA F2A2 |
w: Hej vil du med s\aa kom, s\aa g\aer vi ryd-ing om.
|  A2Bc d2d2 d4 | A2Ac e2e2 e4 | f2ef g2g2 f2a2 | ggee c4   d4  |]
w: Hej vil du med s\aa kom, s\aa g\aer vi ryd-ing om.
[| a2aa f2f2 d4 | g2gg e2e2 c4 | e2ee d2B2 B4   | e2ee c2c2 A4   |
w: Hej vil du med s\aa kom, s\aa g\aer vi ryd-ing om, s\aa gor vi flas-ken tom.
|  A2Bc d2d2 d4 | c2cc e2e2 e4 | f2ef g2g2 f2a2 | ggee c4   d4  |]
